packages/IonIcons/src/TrashIcon/index.svg

<svg xmlns="http://www.w3.org/2000/svg" viewBox="0 0 512 512">
  <path d="M296 64h-80a7.91 7.91 0 00-8 8v24h96V72a7.91 7.91 0 00-8-8z" fill="none"/>
  <path d="M432 96h-96V72a40 40 0 00-40-40h-80a40 40 0 00-40 40v24H80a16 16 0 000 32h17l19 304.92c1.42 26.85 22 47.08 48 47.08h184c26.13 0 46.3-19.78 48-47l19-305h17a16 16 0 000-32zM192.57 416H192a16 16 0 01-16-15.43l-8-224a16 16 0 1132-1.14l8 224A16 16 0 01192.57 416zM272 400a16 16 0 01-32 0V176a16 16 0 0132 0zm32-304h-96V72a7.91 7.91 0 018-8h80a7.91 7.91 0 018 8zm32 304.57A16 16 0 01320 416h-.58A16 16 0 01304 399.43l8-224a16 16 0 1132 1.14z"/>
</svg>

<svg xmlns="http://www.w3.org/2000/svg" width="512" height="512" viewBox="0 0 512 512"><title>ionicons-v5-e</title><path d="M296,64H216a7.91,7.91,0,0,0-8,8V96h96V72A7.91,7.91,0,0,0,296,64Z" style="fill:none"/><path d="M432,96H336V72a40,40,0,0,0-40-40H216a40,40,0,0,0-40,40V96H80a16,16,0,0,0,0,32H97L116,432.92c1.42,26.85,22,47.08,48,47.08H348c26.13,0,46.3-19.78,48-47L415,128h17a16,16,0,0,0,0-32ZM192.57,416H192a16,16,0,0,1-16-15.43l-8-224a16,16,0,1,1,32-1.14l8,224A16,16,0,0,1,192.57,416ZM272,400a16,16,0,0,1-32,0V176a16,16,0,0,1,32,0ZM304,96H208V72a7.91,7.91,0,0,1,8-8h80a7.91,7.91,0,0,1,8,8Zm32,304.57A16,16,0,0,1,320,416h-.58A16,16,0,0,1,304,399.43l8-224a16,16,0,1,1,32,1.14Z"/></svg>
